X: 1
T: Tain In The Rain
R: reel
M: 4/4
L: 1/8
K: Amin
cA (3AAA cAGA|(3AAA cA GA (3AAA|cA (3AAA cAGA|(3AAA cd e2 ed|
cA (3AAA cAGA|(3AAA cA GA (3AAA|deee d3e|d2de gedB:|
|:ce (3eee gece|de (3eee a2ag|edcd ed (3ddd|eage d2ed|
ce (3eee gece|de (3eee a2ag|edcd ed (3ddd|eage d2ed:|

